assets/img/kusama-logo-sign.svg

<svg width="24" height="24" viewBox="0 0 24 24" fill="none" xmlns="http://www.w3.org/2000/svg">
<rect width="24" height="24" rx="12" fill="#111212"/>
<path d="M20.25 8.15838C20.25 8.15838 19.486 7.50812 19.2359 7.31253C18.922 7.01743 18.5305 6.82527 18.1045 6.75835C17.5768 6.69165 17.0387 7.0392 16.6749 7.27423L16.6713 7.2765C16.3074 7.51156 15.6038 8.19784 15.3192 8.39687C15.0329 8.59418 14.3034 8.79148 13.1427 9.50008C11.9837 10.2087 7.372 13.1408 7.372 13.1408L8.55856 13.1529L3.2311 15.91H3.76747L3 16.5037C3.42599 16.6015 3.87095 16.5328 4.24865 16.3149V16.4899C4.24865 16.4899 10.6006 13.9815 11.8371 14.6301L11.0921 14.8497C11.1559 14.8497 12.3666 14.9286 12.3666 14.9286C12.4235 15.4331 12.7064 15.886 13.1323 16.1605C13.8602 16.6409 13.874 16.9017 13.874 16.9017C13.874 16.9017 13.4962 17.0544 13.4962 17.25C13.8464 17.1488 14.2103 17.0956 14.5759 17.0939C14.907 17.1059 15.2347 17.1591 15.5503 17.25C15.5503 17.25 15.5124 17.0527 15.0036 16.9017C14.4948 16.749 14.005 16.2137 13.7567 15.9135C13.4549 15.5274 13.379 15.0093 13.5583 14.5512C13.7325 14.1034 14.3482 13.8512 15.5986 13.2043C17.0801 12.4408 17.4181 11.8678 17.6251 11.4286C17.832 10.9893 18.1459 10.1057 18.3167 9.69052C18.4598 9.30277 18.7047 8.96134 19.0289 8.70227C19.248 8.53413 20.25 8.15838 20.25 8.15838Z" fill="white"/>
</svg>

<svg width="24" height="24" fill="none" xmlns="http://www.w3.org/2000/svg"><rect width="24" height="24" rx="12" fill="#111212"/><path d="M20.25 8.158s-.764-.65-1.014-.845a2.129 2.129 0 0 0-1.131-.555c-.528-.066-1.066.281-1.43.516l-.004.003c-.364.235-1.067.92-1.352 1.12-.286.197-1.016.394-2.176 1.103-1.16.709-5.771 3.64-5.771 3.64l1.187.013L3.23 15.91h.536L3 16.504a1.72 1.72 0 0 0 1.249-.19v.176s6.352-2.508 7.588-1.86l-.745.22c.064 0 1.275.079 1.275.079.056.504.34.957.765 1.231.728.48.742.742.742.742s-.378.152-.378.348a3.96 3.96 0 0 1 1.08-.156c.331.012.659.065.974.156 0 0-.038-.197-.546-.348-.51-.153-.999-.688-1.247-.989a1.39 1.39 0 0 1-.199-1.362c.175-.448.79-.7 2.04-1.347 1.482-.763 1.82-1.336 2.027-1.775.207-.44.52-1.323.692-1.738.143-.388.388-.73.712-.989.219-.168 1.221-.544 1.221-.544Z" fill="#fff"/></svg>
